Numix-GalliumOS/16/mimetypes/application-epub+zip.svg

<?xml version="1.0" encoding="UTF-8" standalone="no"?>
<svg
   xmlns:dc="http://purl.org/dc/elements/1.1/"
   xmlns:cc="http://creativecommons.org/ns#"
   xmlns:rdf="http://www.w3.org/1999/02/22-rdf-syntax-ns#"
   xmlns:svg="http://www.w3.org/2000/svg"
   xmlns="http://www.w3.org/2000/svg"
   xmlns:sodipodi="http://sodipodi.sourceforge.net/DTD/sodipodi-0.dtd"
   xmlns:inkscape="http://www.inkscape.org/namespaces/inkscape"
   width="16"
   height="16"
   viewBox="0 0 16 16"
   id="svg2"
   version="1.1"
   inkscape:version="0.48.5 r10040"
   sodipodi:docname="application-epub+zip.svg">
  <metadata
     id="metadata18">
    <rdf:RDF>
      <cc:Work
         rdf:about="">
        <dc:format>image/svg+xml</dc:format>
        <dc:type
           rdf:resource="http://purl.org/dc/dcmitype/StillImage" />
      </cc:Work>
    </rdf:RDF>
  </metadata>
  <defs
     id="defs16" />
  <sodipodi:namedview
     pagecolor="#ffffff"
     bordercolor="#666666"
     borderopacity="1"
     objecttolerance="10"
     gridtolerance="10"
     guidetolerance="10"
     inkscape:pageopacity="0"
     inkscape:pageshadow="2"
     inkscape:window-width="1280"
     inkscape:window-height="970"
     id="namedview14"
     showgrid="true"
     inkscape:zoom="29.5"
     inkscape:cx="8.5932887"
     inkscape:cy="7.0495989"
     inkscape:window-x="0"
     inkscape:window-y="0"
     inkscape:window-maximized="1"
     inkscape:current-layer="svg2">
    <inkscape:grid
       type="xygrid"
       id="grid3019" />
  </sodipodi:namedview>
  <path
     style="fill:#7c9c35;fill-opacity:1"
     d="M 2.667969,-4.457e-4 C 2.324219,-4.457e-4 2,0.3378123 2,0.696447 L 2,15.303108 C 2,15.641365 2.34375,16 2.667969,16 l 10.664062,0 C 13.65625,16 14,15.641365 14,15.303108 L 14,3.9995541 10,-4.457e-4 z"
     id="path4-2"
     inkscape:connector-curvature="0"
     sodipodi:nodetypes="ssssssccs" />
  <path
     style="fill:#000000;fill-opacity:0.19599998"
     d="m 10.583223,3.3315851 0.0154,0.01953 0.04005,-0.01953 z m 0.02978,0.667969 3.387,3.664062 0,-3.664062 z"
     id="path6"
     inkscape:connector-curvature="0"
     sodipodi:nodetypes="cccccccc" />
  <path
     style="fill:#ffffff;fill-opacity:0.39200003"
     d="m 10,-4.457e-4 3.996396,3.9999998 -3.383784,0 C 10.313513,3.9995541 10,3.6824371 10,3.3833381 z"
     id="path8"
     inkscape:connector-curvature="0"
     sodipodi:nodetypes="ccssc" />
  <path
     style="fill:#ffffff"
     inkscape:connector-curvature="0"
     id="path12"
     d="M 8,11.246461 5.4216211,8.6680821 8,6.0848919 8.8610634,6.9459553 7.1389366,8.6680821 8,9.5243342 10.578379,6.9459553 8.3319179,4.6994943 c -0.1827949,-0.1827949 -0.4810409,-0.1827949 -0.6638358,0 l -3.6366687,3.63667 C 3.8486172,8.5189592 3.8486172,8.8172039 4.0314134,9 l 3.6366687,3.631859 c 0.1827949,0.187605 0.4810409,0.187605 0.6638358,0 L 11.968587,9 c 0.182796,-0.1827961 0.182796,-0.4810408 0,-0.6638357 L 11.439442,7.8070187 z" />
</svg>

<svg xmlns="http://www.w3.org/2000/svg" viewBox="0 0 16 16">
 <path d="m 2.668 0 c -0.344 0 -0.668 0.338 -0.668 0.697 l 0 14.607 c 0 0.338 0.344 0.697 0.668 0.697 l 10.664 0 c 0.324 0 0.668 -0.359 0.668 -0.697 l 0 -11.304 -4 -4 z" style="fill:#7c9c35;fill-opacity:1"/>
 <path d="m 10.583 3.332 0.015 0.02 0.04 -0.02 z m 0.03 0.668 3.387 3.664 0 -3.664 z" style="fill:#000;fill-opacity:0.196"/>
 <path d="m 10 0 3.996 4 -3.384 0 c -0.299 0 -0.613 -0.317 -0.613 -0.616 z" style="fill:#fff;fill-opacity:0.392"/>
 <path d="m 8 11.246 -2.578 -2.578 2.578 -2.583 0.861 0.861 -1.722 1.722 0.861 0.856 2.578 -2.578 -2.246 -2.246 c -0.183 -0.183 -0.481 -0.183 -0.664 0 l -3.637 3.637 c -0.183 0.183 -0.183 0.481 0 0.664 l 3.637 3.632 c 0.183 0.188 0.481 0.188 0.664 0 l 3.637 -3.632 c 0.183 -0.183 0.183 -0.481 0 -0.664 l -0.529 -0.529 z" style="fill:#fff"/>
</svg>
